X:144
T:Reel 144
M:4/4
K:Gmaj
L:1/8
 (3def |g>G (3GGG GABd|ef (3fed e>d (3BAB |c>A (3AAA e>A (3ABc |dfab c'baf|g>G (3GGG B>G (3GAG |e>a (3fga b>gf>g|agfg fadf|agfa g2| (3def |g2bg fgbg|dgbg fgag|e>c (3cBA e>c (3cBc |e>A (3AAA e>A (3ABA |g2fg gbga|bgd'g bgfg|efde fgfg|adfa gaba|
